X: 512
T: Jiefu huan xiaoyi
L: 1/8
M: 2/4
K: A
B e e d/ B/ [I:setbarnb 1]| 
e dB2 | 
e B A G/ F/ | 
E E/ F/ C B, | 
B B e d | 
B F/ C/E2 | 
A F/ F/ E F/ E/ | 
B,4 |]

@@@ Tune index: 9386
